!!!!SEGMENT: Lhe2010-Usquequo_Domine.krn
!!!id: Lhe2010
!!!AGN: Motet
!!!voices: 4
!!!COM: Jean Lhéritier
!!!OTL: Usquequo Domine
**kern	**kern	**kern	**kern
*part4	*part3	*part2	*part1
*staff4	*staff3	*staff2	*staff1
*I"Bassus	*I"Tenor	*I"Altus	*I"Superius
*I'B	*I'T	*I'A	*I'S
*clefF4	*clefGv2	*clefGv2	*clefG2
*k[]	*k[]	*k[]	*k[]
*C:	*C:	*C:	*C:
*M2/1	*M2/1	*M2/1	*M2/1
*met(C|)	*met(C|)	*met(C|)	*met(C|)
0A	0A	0e	0a
=1	=1	=1	=1
1D	1d	1f	1a
[1A	[1c	[1e	[1a
=2	=2	=2	=2
1A]	1c]	1e]	1a]
1r	1r	1r	1r
=3	=3	=3	=3
0A	0c	0e	0a
=4	=4	=4	=4
1D	1d	1f	1a
1E	1B	1e	1g
=5	=5	=5	=5
1.C	1c	1.e	1.g
.	[1c	.	.
2C	.	2e	2g
=6	=6	=6	=6
1G	2c]	0d	2g
.	4B	.	1g
.	4A	.	.
2r	1B	.	.
[2G	.	.	2g
=7	=7	=7	=7
2G]	2r	2r	1a
2F	1d	2f	.
2G	.	2e	2r
2A	2c	[2f	[2a
=8	=8	=8	=8
1B-i	2.d	4f]	2a]
.	.	4e	.
.	.	1d	2g
.	4e	.	.
1A	2f	.	[1a
.	[2e	2c#i	.
=9	=9	=9	=9
1D	4e]	1d	2a]
.	4d	.	.
.	1d	.	2f
1E	.	2.G	1g
.	2c#i	.	.
.	.	4A	.
=10	=10	=10	=10
1D	1d	4B	2.f
.	.	4c	.
.	.	1d	.
.	.	.	4e
1A	2r	.	4f
.	.	.	4g
.	[2f	2c	[2a
=11	=11	=11	=11
1B-i	4f]	1d	2a]
.	4e	.	.
.	2.d	.	2g
1A	.	1e	[1a
.	4c#i	.	.
.	4c#i	.	.
.	8BL	.	.
.	8c#iJ	.	.
=12	=12	=12	=12
2F	2A	2.f	1a]
2D	2.d	.	.
.	.	4e	.
1F	.	2d	1a
.	4c	.	.
.	2f	2c	.
=13	=13	=13	=13
1G	2e	2.g	1b
.	1d	.	.
.	.	4f	.
1A	.	1e	[1a
.	2c#i	.	.
=14	=14	=14	=14
1.D	1d	2d	0a]
.	.	2d	.
.	2r	1f	.
2D	2A	.	.
=15	=15	=15	=15
1A	1c	2.e	2r
.	.	.	2e
.	.	8dL	.
.	.	8cJ	.
1G	1B	2e	1g
.	.	[2d	.
=16	=16	=16	=16
1.D	0d	2d]	2f
.	.	4c	2d
.	.	4B	.
.	.	1A	2f
2E	.	.	2g
=17	=17	=17	=17
2F	1d	1f	2a
2G	.	.	2b
1A	1c	2e	1cc
.	.	2c	.
=18	=18	=18	=18
1G	2r	2d	1b
.	2G	2e	.
[1F	2c	2.f	[1a
.	2A	.	.
.	.	8eL	.
.	.	8dJ	.
=19	=19	=19	=19
1F]	2c	2c	1a]
.	2d	2A	.
2E	1e	2B	2g
2G	.	[2g	[2b
=20	=20	=20	=20
2A	2c	4g]	4b]
.	.	4e	4a
2D	2d	2f	1a
1E	1B	1e	.
.	.	.	2g#i
=21	=21	=21	=21
2F	2A	2c	0a
4D	1d	1f	.
4E	.	.	.
4F	.	.	.
4G	.	.	.
[2A	4c	4e	.
.	4B	4d	.
=22	=22	=22	=22
2A]	2c	2e	1r
4G	2d	2f	.
4F	.	.	.
4E	1e	2g	[1b
4F	.	.	.
4G	.	[2e	.
4A	.	.	.
=23	=23	=23	=23
2G	0E	4e]	1b]
.	.	4d	.
1A	.	2c	.
.	.	1B	1b
2G#i	.	.	.
=24	=24	=24	=24
1A	0r	0e	1cc
1r	.	.	2b
.	.	.	[2cc
=25	=25	=25	=25
0r	0r	1e	2cc]
.	.	.	2b
.	.	1f	1a
=26	=26	=26	=26
0r	0r	2e	2g
.	.	1f	2.a
.	.	.	4g
.	.	2e	[2cc
=27	=27	=27	=27
0r	0r	1d	2cc]
.	.	.	2b
.	.	2.c	[1cc
.	.	4d	.
=28	=28	=28	=28
0r	0r	2e	1cc]
.	.	1f	.
.	.	.	2r
.	.	2e	2g
=29	=29	=29	=29
0r	0r	1f	2.a
.	.	.	4b
.	.	2r	2cc
.	.	2d	[2b
=30	=30	=30	=30
1r	0r	2e	4b]
.	.	.	4a
.	.	2.g	4g
.	.	.	4f
[1E	.	.	4e
.	.	4f	4f
.	.	[2e	4g
.	.	.	4a
=31	=31	=31	=31
0E]	0e	2e]	2b
.	.	4d	1a
.	.	4c	.
.	.	1B	.
.	.	.	2g#i
=32	=32	=32	=32
0F	2d	1A	0a
.	1c	.	.
.	.	2r	.
.	4B	2A	.
.	4A	.	.
=33	=33	=33	=33
0E	1G	1B	0r
.	2r	1c	.
.	2G	.	.
=34	=34	=34	=34
1D	2A	1d	0r
.	2B	.	.
4C	1c	2G	.
4D	.	.	.
4E	.	[2g	.
4F	.	.	.
=35	=35	=35	=35
2G	2B	4g]	1e
.	.	4f	.
2A	1c	1e	.
1F	.	.	1a
.	4B	2d	.
.	4A	.	.
=36	=36	=36	=36
1E	2B	1e	1g
.	2.c	.	.
1C	.	2r	2e
.	4B	.	.
.	4A	[2c	[2f
.	4G	.	.
=37	=37	=37	=37
1r	2A	2c]	4f]
.	.	.	4e
.	2E	1B	1e
1D	1F	.	.
.	.	2A	2d
=38	=38	=38	=38
2.G	1E	2B	2.e
.	.	2.g	.
4F	.	.	4f
2E	2.e	.	4g
.	.	4f	4a
2G	.	[2e	[2b
.	4d	.	.
=39	=39	=39	=39
2A	2c	2e]	4b]
.	.	.	4a
2F	2A	2d	1a
1E	1B	[1e	.
.	.	.	2g#i
=40	=40	=40	=40
1r	0A	1e]	1a
[1F	.	1c	1r
=41	=41	=41	=41
1F]	2r	0f	0a
.	2A	.	.
1D	1d	.	.
=42	=42	=42	=42
1A	0c	2e	1a
.	.	2e	.
[1F	.	2.f	1a
.	.	8eL	.
.	.	8dJ	.
=43	=43	=43	=43
2F]	1r	2c	0a
2F	.	2d	.
2F	[1c	2A	.
2F	.	2A	.
=44	=44	=44	=44
2E	2c]	1.e	1g
2C	2c	.	.
2.E	2c	.	[1g
.	2c	2e	.
4F	.	.	.
=45	=45	=45	=45
1.G	2B	2d	1g]
.	2G	4B	.
.	.	4c	.
.	2B	4d	1r
.	.	4e	.
2F	2c	[2f	.
=46	=46	=46	=46
4D	2.d	2f]	0r
4E	.	.	.
4F	.	2f	.
4G	4B	.	.
2A	2c	2e	.
[2B	2G	2d	.
=47	=47	=47	=47
4B]	1A	2.c	[0e
4A	.	.	.
1A	.	.	.
.	.	8BL	.
.	.	8AJ	.
.	1E	1B	.
2G#i	.	.	.
=48	=48	=48	=48
1A	1c	1A	1e]
1D	2B	2r	1d
.	[2A	[2f	.
=49	=49	=49	=49
0F	2A]	2f]	2c
.	4G	4e	1a
.	4F	4d	.
.	2.A	2c	.
.	.	2d	2a
.	4B	.	.
=50	=50	=50	=50
0E	1c	1.e	1.g
.	2B	.	.
.	[2e	[2g	[2cc
=51	=51	=51	=51
0r	2e]	2g]	2cc]
.	2d	2f	2b
.	2c	2e	2a
.	2B	2d	2g#i
=52	=52	=52	=52
2r	2A	2e	1a
1A	1c	1f	.
.	.	.	1r
2G	2B	2e	.
=53	=53	=53	=53
2F	2A	2d	0r
2E	2G	2c	.
2D	2A	2d	.
[2G	[2B	[2e	.
=54	=54	=54	=54
4G]	4B]	4e]	1r
4F	4A	4d	.
4E	1A	1d	.
4D	.	.	.
1E	.	.	2r
.	2G	2c#i	[2g
=55	=55	=55	=55
1D	0A	2.d	2g]
.	.	.	2f
.	.	8cL	.
.	.	8BJ	.
2r	.	2c	2e
[2D	.	4F	2d
.	.	4G	.
=56	=56	=56	=56
2D]	1A	4A	2f
.	.	4B	.
2C	.	2.c	2.e
1D	1F	.	.
.	.	4A	4d
.	.	2B	[2d
=57	=57	=57	=57
1AA	1E	1A	2d]
.	.	.	2c#i
2r	[1D	1A	2.d
2A	.	.	.
.	.	.	4cny
=58	=58	=58	=58
2A	1D]	2r	4d
.	.	.	4e
2A	.	2d	2.f
1B-i	1r	2d	.
.	.	.	4e
.	.	2d	[2d
=59	=59	=59	=59
1A	0r	1e	2d]
.	.	.	2c#i
2F	.	2.d	[1d
[2G	.	.	.
.	.	4c	.
=60	=60	=60	=60
2G]	2r	2B	1d]
4F	2d	4A	.
4E	.	4G	.
2F	2d	2A	2r
2G	2d	2B	2g
=61	=61	=61	=61
1C	1e	2c	2g
.	.	1g	2g
2r	1d	.	1a
2D	.	2f	.
=62	=62	=62	=62
2.E	2B	2e	1g
.	1c	1g	.
4C	.	.	.
2E	.	.	2e
2F	4B	2f	[2a
.	4A	.	.
=63	=63	=63	=63
2G	2B	2d	4a]
.	.	.	4g
2C	2c	2e	1g
1D	1A	1d	.
.	.	.	2f#i
=64	=64	=64	=64
1E	2r	1B	1g
.	2G	.	.
[1C	2A	[1e	2r
.	2G	.	2g
=65	=65	=65	=65
0C]	2.c	0e]	2a
.	.	.	2g
.	4B	.	.
.	2A	.	2.cc
.	2G	.	.
.	.	.	4b
=66	=66	=66	=66
0r	2F	2r	2a
.	2E	2c	2g
.	4D	2d	2f
.	4C	.	.
.	[2c	2c	2e
=67	=67	=67	=67
2r	2c]	2f	1d
2G	2B	2g	.
2A	2.c	2e	1c
2F	.	[2f	.
.	4B	.	.
=68	=68	=68	=68
2.c	2A	2f]	1r
.	2G	4e	.
4B	.	4d	.
2A	1c	1e	2r
2G	.	.	2c
=69	=69	=69	=69
2F	2r	2d	2d
2E	2G	2c	2e
1D	2A	1d	1f
.	2B	.	.
=70	=70	=70	=70
2C	1c	1G	2.e
2C	.	.	.
.	.	.	8dL
.	.	.	8eJ
2D	2B	2r	2f
2E	2c	2G	[2e
=71	=71	=71	=71
1F	2.c	2A	2e]
.	.	2B	2d
.	8BL	.	.
.	8AJ	.	.
[1E	2G	1c	[1e
.	[2A	.	.
=72	=72	=72	=72
1E]	2A]	1B	1e]
.	2G	.	.
1AA	1c	2r	2r
.	.	[2A	2e
=73	=73	=73	=73
2r	1B	2A]	2f
2E	.	2G	2e
2F	1r	4A	4c
.	.	4B	4d
2E	.	4c	4e
.	.	4d	4f
=74	=74	=74	=74
2C	1r	2.e	4g
.	.	.	4a
2G	.	.	1b
.	.	8dL	.
.	.	8cJ	.
2G	[1d	4d	.
.	.	4e	.
2F	.	[2f	[2a
=75	=75	=75	=75
1B-i	1d]	2f]	2a]
.	.	4e	2g
.	.	4d	.
[1A	1f	2c	[1a
.	.	[2d	.
=76	=76	=76	=76
1A]	1e	2d]	1a]
.	.	2c#i	.
2D	[1d	2.d	2.b-i
[2G	.	.	.
.	.	4cny	4a
=77	=77	=77	=77
2G]	0d_	2B	4g
.	.	.	4f
2F	.	2A	2.a
1G	.	1B	.
.	.	.	4g
.	.	.	[2g
=78	=78	=78	=78
1D	1d]	1A	2g]
.	.	.	2f#i
2r	1d	1G	1g
[2G	.	.	.
=79	=79	=79	=79
2G]	2B	2r	1d
2F	2.d	2A	.
1G	.	2B	2r
.	4c	.	.
.	4B	[2d	2d
.	4A	.	.
=80	=80	=80	=80
1E	1G	2d]	1e
.	.	2c#i	.
[1D	1A	1d	2f
.	.	.	4d
.	.	.	4e
=81	=81	=81	=81
1D]	1F	2r	4f
.	.	.	4g
.	.	2.d	2.a
1E	1G	.	.
.	.	4B	4g
.	.	2c	[2g
=82	=82	=82	=82
1D	1A	1d	2g]
.	.	.	2f#i
1G	2G	2B	[1g
.	2d	4G	.
.	.	4A	.
=83	=83	=83	=83
1r	2d	4B	1g]
.	.	4c	.
.	2d	2.d	.
1G	1e	.	2r
.	.	4c	.
.	.	[2c	[2g
=84	=84	=84	=84
2G	1d	2c]	2g]
2G	.	2B	2g
1A	2r	1c	2e
.	[2c	.	2f
=85	=85	=85	=85
1G	2c]	1d	0g
.	2B	.	.
2r	1c	2e	.
[2c	.	[2g	.
=86	=86	=86	=86
2c]	1d	4g]	1g
.	.	4c	.
2B	.	1f	.
2c	[1c	.	2g
2c	.	2e	2g
=87	=87	=87	=87
4F	1c]	2f	1a
4G	.	.	.
4A	.	2c	.
4B	.	.	.
2c	1r	2c	2g
2A	.	2c	[2cc
=88	=88	=88	=88
1G	2r	1d	2cc]
.	2G	.	2b
[1C	2A	1c	[1cc
.	2G	.	.
=89	=89	=89	=89
1C]	1c	2r	1cc]
.	.	2c	.
2r	2B	2d	1r
2C	[2A	2c	.
=90	=90	=90	=90
2D	2A]	1f	0r
2D	4G	.	.
.	4F	.	.
1C	2G	2e	.
.	[2A	[2c	.
=91	=91	=91	=91
1F	2A]	2c]	0r
.	2D	4B	.
.	.	4A	.
1E	1G	2B	.
.	.	[2c	.
=92	=92	=92	=92
1.F	1A	4c]	2r
.	.	4B	.
.	.	4A	2c
.	.	4G	.
.	2D	4A	2d
.	.	4G	.
2E	[2G	[2c	2c
=93	=93	=93	=93
1D	2G]	2c]	1f
.	2F	2B	.
2.C	2G	2c	2.e
.	[2c	2g	.
4C	.	.	4f
=94	=94	=94	=94
2C	4c]	2e	4g
.	4d	.	4c
2C	2e	1g	2cc
2G	2d	.	2b
2A	2c	2f	[2cc
=95	=95	=95	=95
1G	1d	1g	2cc]
.	.	.	2b
1C	1c	1e	2g
.	.	.	[2a
=96	=96	=96	=96
0D	2B	0d	4a]
.	.	.	4g
.	4A	.	1g
.	4G	.	.
.	1A	.	.
.	.	.	2f#i
=97	=97	=97	=97
1E	0G	2r	1g
.	.	2c	.
1C	.	2c	1r
.	.	2d	.
=98	=98	=98	=98
0r	0r	1e	1g
.	.	2r	2g
.	.	2c	2a
=99	=99	=99	=99
0r	0r	2d	1b
.	.	2d	.
.	.	2e	2r
.	.	2c	2g
=100	=100	=100	=100
0r	0r	1f	2a
.	.	.	2a
.	.	[1e	2b
.	.	.	2g
=101	=101	=101	=101
0r	0r	2e]	1cc
.	.	4d	.
.	.	4c	.
.	.	2d	2b
.	.	[2f	[2a
=102	=102	=102	=102
0r	0r	4f]	2a]
.	.	4e	.
.	.	1d	4g
.	.	.	4f
.	.	.	1e
.	.	2c#i	.
=103	=103	=103	=103
0r	0r	2d	2.d
.	.	4B	.
.	.	4c	4e
.	.	4d	4f
.	.	4B	4g
.	.	[2c	[2a
=104	=104	=104	=104
2r	0r	4c]	4a]
.	.	4B	4g
2C	.	4A	1g
.	.	4G	.
2C	.	1A	.
2D	.	.	2f#i
=105	=105	=105	=105
1E	2r	0G	0g
.	2G	.	.
2r	2G	.	.
2C	2A	.	.
=106	=106	=106	=106
2D	1B	0r	0r
2D	.	.	.
2E	2r	.	.
2C	2G	.	.
=107	=107	=107	=107
1F	2A	0r	0r
.	2A	.	.
[1E	2B	.	.
.	2G	.	.
=108	=108	=108	=108
2E]	1c	0r	0r
2F	.	.	.
2G	2B	.	.
[2A	[2c	.	.
=109	=109	=109	=109
4A]	4c]	1r	1r
4G	4B	.	.
1G	4A	.	.
.	4G	.	.
.	1A	2r	1a
2F#i	.	[2d	.
=110	=110	=110	=110
1.G	2G	4d]	2.b
.	.	4c	.
.	2d	4B	.
.	.	4A	8aL
.	.	.	8gJ
.	2B	2G	2b
2F	[2c	2A	[2a
=111	=111	=111	=111
1E	4c]	2B	4a]
.	4B	.	4g
.	4A	2c	1g
.	4G	.	.
1D	1A	1d	.
.	.	.	2f#i
=112	=112	=112	=112
*M3/1	*M3/1	*M3/1	*M3/1
*met(3)	*met(3)	*met(3)	*met(3)
1E	1G	0.c	0.g
1C	1G	.	.
1C	1G	.	.
=113	=113	=113	=113
1F	0A	0.r	1%3r
1F	.	.	.
[1C	1G	.	.
=114	=114	=114	=114
1C]	0c	0.r	1%3r
0D	.	.	.
.	1B	.	.
=115	=115	=115	=115
0.C	0.c	0e	0g
.	.	1e	1g
=116	=116	=116	=116
0.r	1%3r	1f	0a
.	.	1f	.
.	.	[1c	1g
=117	=117	=117	=117
0.r	1%3r	1c]	0cc
.	.	0d	.
.	.	.	1b
=118	=118	=118	=118
0F	0A	0.c	0.cc
1F	1c	.	.
=119	=119	=119	=119
1.G	1B	0.r	1%3r
.	1.e	.	.
2E	.	.	.
1F	.	.	.
.	2d	.	.
=120	=120	=120	=120
1G	0d	0.r	1%3r
0E	.	.	.
.	1c#i	.	.
=121	=121	=121	=121
1D	0d	0f	0a
1D	.	.	.
1D	1d	1f	1a
=122	=122	=122	=122
0G	1d	0g	1b
.	1B	.	1.dd
1E	1c	1g	.
.	.	.	2cc
=123	=123	=123	=123
1C	1e	1g	0cc
0G	0d	0g	.
.	.	.	1b
=124	=124	=124	=124
*M2/1	*M2/1	*M2/1	*M2/1
*met(C|)	*met(C|)	*met(C|)	*met(C|)
1C	1c	2e	0cc
.	.	1g	.
2r	1A	.	.
[2c	.	2f	.
=125	=125	=125	=125
2c]	1G	2e	0r
2B	.	2d	.
2A	2c	2e	.
2G	2B	[2g	.
=126	=126	=126	=126
1A	1c	2g]	2r
.	.	2f#i	1cc
1G	[1d	2.g	.
.	.	.	2b
.	.	4e	.
=127	=127	=127	=127
2r	1d]	2f	2a
1G	.	2g	2g
.	2r	1r	1a
2F	[2c	.	.
=128	=128	=128	=128
2E	2c]	1r	2g
2D	2B	.	1dd
1E	2.G	2r	.
.	.	[2g	2cc
.	4A	.	.
=129	=129	=129	=129
1D	4B	2g]	2b
.	4c	.	.
.	1d	2f	2.a
1A	.	1e	.
.	.	.	4g
.	2c#i	.	2e
=130	=130	=130	=130
0D	2d	2r	2f
.	2d	2f	2a
.	2d	2f	2a
.	2d	2f	2a
=131	=131	=131	=131
0r	2.e	1g	2b
.	.	.	2cc
.	4c	.	.
.	4d	2f	2b
.	4c	.	.
.	4B	[2e	[2a
.	4A	.	.
=132	=132	=132	=132
1r	1B	2e]	2a]
.	.	2d	2g#i
2r	2A	2e	2a
2D	2d	2f	2a
=133	=133	=133	=133
2F	2d	2f	2a
2A	2d	2f	2b
2A	2c	2e	2cc
[2G	[2d	[2g	[2b
=134	=134	=134	=134
4G]	4d]	4g]	4b]
4A	4c	4f	4a
2F	4B	4e	1a
.	4A	4d	.
1E	1B	1e	.
.	.	.	2g#i
=135	=135	=135	=135
1A	0A	[0e	2a
.	.	.	2a
2r	.	.	2a
2A	.	.	2a
=136	=136	=136	=136
2A	2r	0e]	2.cc
2A	2A	.	.
.	.	.	4b
2.c	2A	.	2a
.	2c	.	2g
4B	.	.	.
=137	=137	=137	=137
2A	2c	2r	2a
2G	2B	2e	2b
1A	2A	2e	1cc
.	[2e	2e	.
=138	=138	=138	=138
1G	4e]	2.g	1b
.	4d	.	.
.	2B	.	.
.	.	4f	.
2A	2c	2e	2a
2B	[2d	2d	2g
=139	=139	=139	=139
1A	2d]	1e	0a
.	2c	.	.
2D	2.d	1f	.
2D	.	.	.
.	4c	.	.
=140	=140	=140	=140
2E	4B	2e	2r
.	4A	.	.
2F	1A	2d	2a
2E	.	1e	2b
2E	2G#i	.	2b
=141	=141	=141	=141
2.A	2A	1e	2.cc
.	2A	.	.
4G	.	.	4b
2F	2.c	2r	2a
2E	.	[2c	2g
.	4B	.	.
=142	=142	=142	=142
2F	2A	2c]	2f
2C	2G	2c	1e
1D	1F	1A	.
.	.	.	2d
=143	=143	=143	=143
*M3/1	*M3/1	*M3/1	*M3/1
*met(3)	*met(3)	*met(3)	*met(3)
0AA	0E	0A	0e
1r	1r	1r	1r
=144	=144	=144	=144
1A	1c	1e	1a
1A	1c	1e	1a
1A	1c	1e	1a
=145	=145	=145	=145
1G	1d	1g	1b
1C	1e	1g	1cc
[1G	[1d	[1g	[1b
=146	=146	=146	=146
2G]	2d]	2g]	2b]
2A	2c	2f	2a
1F	1A	1d	1a
1E	1B	1e	1g
=147	=147	=147	=147
2C	0e	0g	0cc
2D	.	.	.
2E	.	.	.
2F	.	.	.
1G	1d	1g	1b
=148	=148	=148	=148
1A	1c	1e	0a
0E	0B	0e	.
.	.	.	1g#i
=149	=149	=149	=149
0C	0A	0e	0a
1r	1r	1r	1r
=150	=150	=150	=150
1A	1c	1e	1a
1A	1c	1e	1a
1A	1c	1e	1a
=151	=151	=151	=151
1G	1d	1g	1b
1C	1e	1g	1cc
[1G	[1d	[1g	[1b
=152	=152	=152	=152
2G]	2d]	2g]	2b]
2A	2c	2f	2a
1F	1A	1d	1a
1E	1B	1e	1g
=153	=153	=153	=153
2C	0e	0g	0cc
2D	.	.	.
2E	.	.	.
2F	.	.	.
1G	1d	1g	1b
=154	=154	=154	=154
1A	1c	1e	0a
0E	0B	0e	.
.	.	.	1g#i
=155	=155	=155	=155
00AAl	00Al	00el	00al
==	==	==	==
*-	*-	*-	*-
!!!system-decoration: [*]
!!!RDF**kern: i = editorial accidental
!!!RDF**kern: l = terminal long
!!!ENC: Benjamin Ory
!!!END: 2024/5/20
!!!EED: Benjamin Ory
!!!EEV: 2024/05/20
!!!YEC: Copyright 2024 Benjamin Ory, All Rights Reserved
!!!ONB: Translated from MusicXML on 2024/05/20
